**kern	**silbe	**kern	**silbe	**kern	**silbe	**harmony	**phrase	**leadinstrument	**rhyme	**timestamp	**harte
*ICvox	*	*ICvox	*	*ICvox	*	*M4/4	*	*	*	*	*M4/4
*VRlead	*	*VRharmonize	*	*VRbacking*VRharmonize	*	*	*	*	*	*	*
*Hstimme	*	*Nstimme	*	*Nstimme	*	*	*	*	*	*	*
*C:	*	*C:	*	*C:	*	*C:	*	*	*	*	*C:
*M4/4	*	*M4/4	*	*M4/4	*	*	*	*	*	*	*
*clefC3	*	*clefC3	*	*clefF4	*	*	*	*	*	*	*
r;	.	r;	.	r;	.	1r;	.	r	.	0	N.C.
=1	=1	=1	=1	=1	=1	=1	=1	=1	=1	=1	=1
*>Letter>A	*>Letter>A	*>Letter>A	*>Letter>A	*>Letter>A	*>Letter>A	*>Letter>A	*>Letter>A	*>Letter>A	*>Letter>A	*>Letter>A	*>Letter>A
*>Label>Intro	*>Label>Intro	*>Label>Intro	*>Label>Intro	*>Label>Intro	*>Label>Intro	*>Label>Intro	*>Label>Intro	*>Label>Intro	*>Label>Intro	*>Label>Intro	*>Label>Intro
1r	.	1r	.	1r	.	1CM	newline	r	.	0.418	C:maj
=2	=2	=2	=2	=2	=2	=2	=2	=2	=2	=2	=2
1r	.	1r	.	1r	.	1CM	.	r	.	2.398	C:maj
=3	=3	=3	=3	=3	=3	=3	=3	=3	=3	=3	=3
1r	.	1r	.	1r	.	1CM	newline	r	.	4.379	C:maj
=4	=4	=4	=4	=4	=4	=4	=4	=4	=4	=4	=4
2r	.	2r	.	2r	.	1CM	.	r	.	6.304	C:maj
4r	.	4r	.	4r	.	.	.	.	.	.	.
4e	El-	4c 4g	El-	4C	El-	.	.	.	.	.	.
=5	=5	=5	=5	=5	=5	=5	=5	=5	=5	=5	=5
*>Letter>B	*>Letter>B	*>Letter>B	*>Letter>B	*>Letter>B	*>Letter>B	*>Letter>B	*>Letter>B	*>Letter>B	*>Letter>B	*>Letter>B	*>Letter>B
*>Label>Chorus	*>Label>Chorus	*>Label>Chorus	*>Label>Chorus	*>Label>Chorus	*>Label>Chorus	*>Label>Chorus	*>Label>Chorus	*>Label>Chorus	*>Label>Chorus	*>Label>Chorus	*>Label>Chorus
4c	-vi-	4G 4e	-vi-	4C	-vi-	1CM	newline	voice	(A	8.229	C:maj
4e	-ra	4c 4g	-ra	4C	-ra	.	.	.	a)	.	.
2r	.	2r	.	2r	.	.	.	.	.	.	.
=6	=6	=6	=6	=6	=6	=6	=6	=6	=6	=6	=6
2r	.	2r	.	2r	.	1CM	.	voice	.	10.122	C:maj
4r	.	4r	.	4r	.	.	.	.	.	.	.
12e	El	4c 4g	El	4C	El	.	.	.	.	.	.
6d	_	.	.	.	.	.	.	.	.	.	.
=7	=7	=7	=7	=7	=7	=7	=7	=7	=7	=7	=7
4c	vi-	4G 4e	vi-	4C	vi-	1CM	newline	voice	(A	12.015	C:maj
4e	-ra	4c 4g	-ra	4C	-ra	.	.	.	a)	.	.
2r	.	2r	.	2r	.	.	.	.	.	.	.
=8	=8	=8	=8	=8	=8	=8	=8	=8	=8	=8	=8
2r	.	2r	.	2r	.	1CM	.	voice	.	13.933	C:maj
4r	.	4r	.	4r	.	.	.	.	.	.	.
4c	My	4G 4e	My	4C	My	.	.	.	.	.	.
=9	=9	=9	=9	=9	=9	=9	=9	=9	=9	=9	=9
2.e	heart's	2.c 2.g	heart's	2.C	heart's	1CM	newline	voice	.	15.852	C:maj
4e	on	4c 4g	on	4C	on	.	.	.	.	.	.
=10	=10	=10	=10	=10	=10	=10	=10	=10	=10	=10	=10
16e	fi	4B 4g	fi	4GG	fi	1GM	.	voice	(A	17.777	G:maj
8.d	_	.	.	.	.	.	.	.	.	.	.
8d	re	8B 8g	re	8GG	re	.	.	.	a)	.	.
8r	.	8r	.	8r	.	.	.	.	.	.	.
8r	.	8r	.	8r	.	.	.	.	.	.	.
8c	for	8A 8f	for	8DD	for	.	.	.	.	.	.
8dq	_	.	.	.	.	.	.	.	.	.	.
12e	El	4B 4g	El	4GG	El	.	.	.	.	.	.
6d	_	.	.	.	.	.	.	.	.	.	.
=11	=11	=11	=11	=11	=11	=11	=11	=11	=11	=11	=11
4c	vi-	4G 4e	vi-	4CC	vi-	1CM	.	voice	(A	19.703	C:maj
4e	-ra	4c 4g	-ra	4CC	-ra	.	.	.	a)	.	.
2r	.	2r	.	2r	.	.	.	.	.	.	.
=12	=12	=12	=12	=12	=12	=12	=12	=12	=12	=12	=12
1r	.	1r	.	1r	.	1CM	.	voice	.	21.629	C:maj
=13	=13	=13	=13	=13	=13	=13	=13	=13	=13	=13	=13
*>Letter>C	*>Letter>C	*>Letter>C	*>Letter>C	*>Letter>C	*>Letter>C	*>Letter>C	*>Letter>C	*>Letter>C	*>Letter>C	*>Letter>C	*>Letter>C
*>Label>Verse	*>Label>Verse	*>Label>Verse	*>Label>Verse	*>Label>Verse	*>Label>Verse	*>Label>Verse	*>Label>Verse	*>Label>Verse	*>Label>Verse	*>Label>Verse	*>Label>Verse
4c	Eyes	1r	.	1r	.	1CMm	newline	.	.	23.555	C:7
8c	that	.	.	.	.	.	.	.	.	.	.
8B	l-	.	.	.	.	.	.	.	.	.	.
8Bq	_	.	.	.	.	.	.	.	.	.	.
4c	-look	.	.	.	.	.	.	.	.	.	.
4c	like	.	.	.	.	.	.	.	.	.	.
=14	=14	=14	=14	=14	=14	=14	=14	=14	=14	=14	=14
8c	Hea-	1r	.	1r	.	1CMm	.	.	.	25.458	C:7
8B	-ven	.	.	.	.	.	.	.	.	.	.
4r	.	.	.	.	.	.	.	.	.	.	.
2r	.	.	.	.	.	.	.	.	.	.	.
=15	=15	=15	=15	=15	=15	=15	=15	=15	=15	=15	=15
4c	Lips	1r	.	1r	.	1CMm	.	.	.	27.361	C:7
4c	like	.	.	.	.	.	.	.	.	.	.
8c	cher-	.	.	.	.	.	.	.	.	.	.
4c	-ry	.	.	.	.	.	.	.	.	.	.
8d#q	_	.	.	.	.	.	.	.	.	.	.
8e	wine	.	.	.	.	.	.	.	B	.	.
=16	=16	=16	=16	=16	=16	=16	=16	=16	=16	=16	=16
2r	.	1r	.	1r	.	1CMm	.	.	.	29.264	C:7
4r	.	.	.	.	.	.	.	.	.	.	.
4c	That	.	.	.	.	.	.	.	.	.	.
=17	=17	=17	=17	=17	=17	=17	=17	=17	=17	=17	=17
8d#q	_	.	.	.	.	.	.	.	.	.	.
4e	girl	1r	.	1r	.	1CMm	.	.	.	31.167	C:7
4e	can	.	.	.	.	.	.	.	.	.	.
8e	sure	.	.	.	.	.	.	.	.	.	.
8d#	e-	.	.	.	.	.	.	.	.	.	.
4e	-nough	.	.	.	.	.	.	.	.	.	.
=18	=18	=18	=18	=18	=18	=18	=18	=18	=18	=18	=18
8d#q	_	.	.	.	.	.	.	.	.	.	.
4e	make	1r	.	1r	.	1CMm	.	.	.	33.07	C:7
8e	my	.	.	.	.	.	.	.	.	.	.
8d#	_	.	.	.	.	.	.	.	.	.	.
8e	lit-	.	.	.	.	.	.	.	.	.	.
8d#	-tle	.	.	.	.	.	.	.	.	.	.
4e	light	.	.	.	.	.	.	.	.	.	.
=19	=19	=19	=19	=19	=19	=19	=19	=19	=19	=19	=19
8f	shine	1r	.	1r	.	1GMm	newline	.	B	34.973	G:7
8e	_	.	.	.	.	.	.	.	.	.	.
[4d	_	.	.	.	.	.	.	.	.	.	.
4.d]	_	.	.	.	.	.	.	.	.	.	.
16e	_	.	.	.	.	.	.	.	.	.	.
16d	_	.	.	.	.	.	.	.	.	.	.
=20	=20	=20	=20	=20	=20	=20	=20	=20	=20	=20	=20
16e	_	1r	.	1r	.	1GMm	.	.	.	36.876	G:7
16g	_	.	.	.	.	.	.	.	.	.	.
8r	.	.	.	.	.	.	.	.	.	.	.
4r	.	.	.	.	.	.	.	.	.	.	.
2r	.	.	.	.	.	.	.	.	.	.	.
=21	=21	=21	=21	=21	=21	=21	=21	=21	=21	=21	=21
8fq	_	.	.	.	.	.	.	.	.	.	.
4g	I	1r	.	1r	.	1CMm	newline	.	.	38.779	C:7
8g	get	.	.	.	.	.	.	.	.	.	.
8g	a	.	.	.	.	.	.	.	.	.	.
8a	fun-	.	.	.	.	.	.	.	.	.	.
4g	-ny	.	.	.	.	.	.	.	.	.	.
8d#q	_	.	.	.	.	.	.	.	.	.	.
8e	fee-	.	.	.	.	.	.	.	.	.	.
=22	=22	=22	=22	=22	=22	=22	=22	=22	=22	=22	=22
8e	-ling	1r	.	1r	.	1CMm	.	.	.	40.66	C:7
16dQ	_	.	.	.	.	.	.	.	.	.	.
16cQ	_	.	.	.	.	.	.	.	.	.	.
8r	.	.	.	.	.	.	.	.	.	.	.
4r	.	.	.	.	.	.	.	.	.	.	.
2r	.	.	.	.	.	.	.	.	.	.	.
=23	=23	=23	=23	=23	=23	=23	=23	=23	=23	=23	=23
8g	up	1r	.	1r	.	1FMm	newline	.	.	42.54	F:7
4c	and	.	.	.	.	.	.	.	.	.	.
8e-	down	.	.	.	.	.	.	.	.	.	.
8d	_	.	.	.	.	.	.	.	.	.	.
4c	my	.	.	.	.	.	.	.	.	.	.
16A	spine	.	.	.	.	.	.	.	B	.	.
[16c	_	.	.	.	.	.	.	.	.	.	.
=24	=24	=24	=24	=24	=24	=24	=24	=24	=24	=24	=24
8c]	_	1r	.	1r	.	1FMm	.	.	.	44.421	F:7
8r	.	.	.	.	.	.	.	.	.	.	.
4r	.	.	.	.	.	.	.	.	.	.	.
2r	.	.	.	.	.	.	.	.	.	.	.
=25	=25	=25	=25	=25	=25	=25	=25	=25	=25	=25	=25
4e	cuz	1r	.	1r	.	1CMm	newline	.	.	46.302	C:7
4e	I	.	.	.	.	.	.	.	.	.	.
8d#q	_	.	.	.	.	.	.	.	.	.	.
8e	know	.	.	.	.	.	.	.	.	.	.
8d	_	.	.	.	.	.	.	.	.	.	.
4c	that	.	.	.	.	.	.	.	.	.	.
=26	=26	=26	=26	=26	=26	=26	=26	=26	=26	=26	=26
8cq	_	.	.	.	.	.	.	.	.	.	.
4d	my	1r	.	1r	.	1GMm	.	.	.	48.207	G:7
8dq	_	.	.	.	.	.	.	.	.	.	.
4e	El-	.	.	.	.	.	.	.	.	.	.
8dq	_	.	.	.	.	.	.	.	.	.	.
4e	-vi-	.	.	.	.	.	.	.	.	.	.
4d	-ra's	.	.	.	.	.	.	.	.	.	.
=27	=27	=27	=27	=27	=27	=27	=27	=27	=27	=27	=27
8dq	_	.	.	.	.	.	.	.	.	.	.
8e	mine	1r	.	1r	.	1CMm	newline	.	B	50.112	C:7
8d	_	.	.	.	.	.	.	.	.	.	.
4c	_	.	.	.	.	.	.	.	.	.	.
2r	.	.	.	.	.	.	.	.	.	.	.
=28	=28	=28	=28	=28	=28	=28	=28	=28	=28	=28	=28
8r	.	2r	.	2r	.	1CMm	.	.	.	52.007	C:7
8~F	Cuz	.	.	.	.	.	.	.	.	.	.
4e	I'm	.	.	.	.	.	.	.	.	.	.
8e	sing-	4r	.	4r	.	.	.	.	.	.	.
8d#	-ing	.	.	.	.	.	.	.	.	.	.
4e	El-	4c 4g	El-	4C	El-	.	.	.	.	.	.
=29	=29	=29	=29	=29	=29	=29	=29	=29	=29	=29	=29
*>Letter>B	*>Letter>B	*>Letter>B	*>Letter>B	*>Letter>B	*>Letter>B	*>Letter>B	*>Letter>B	*>Letter>B	*>Letter>B	*>Letter>B	*>Letter>B
*>Label>Chorus	*>Label>Chorus	*>Label>Chorus	*>Label>Chorus	*>Label>Chorus	*>Label>Chorus	*>Label>Chorus	*>Label>Chorus	*>Label>Chorus	*>Label>Chorus	*>Label>Chorus	*>Label>Chorus
4c	-vi-	4G 4e	-vi-	4C	-vi-	1CM	newline	.	(A	53.902	C:maj
4e	-ra	4c 4g	-ra	4C	-ra	.	.	.	a)	.	.
2r	.	2r	.	2r	.	.	.	.	.	.	.
=30	=30	=30	=30	=30	=30	=30	=30	=30	=30	=30	=30
2r	.	2r	.	2r	.	1CM	.	.	.	55.832	C:maj
4r	.	4r	.	4r	.	.	.	.	.	.	.
12e	El	4c 4g	El	4C	El	.	.	.	.	.	.
6d	_	.	.	.	.	.	.	.	.	.	.
=31	=31	=31	=31	=31	=31	=31	=31	=31	=31	=31	=31
4c	vi-	4G 4e	vi-	4C	vi-	1CM	newline	.	(A	57.762	C:maj
4e	-ra	4c 4g	-ra	4C	-ra	.	.	.	a)	.	.
2r	.	2r	.	2r	.	.	.	.	.	.	.
=32	=32	=32	=32	=32	=32	=32	=32	=32	=32	=32	=32
2r	.	2r	.	2r	.	1CM	.	.	.	59.639	C:maj
4r	.	4r	.	4r	.	.	.	.	.	.	.
4c	My	4G 4e	My	4C	My	.	.	.	.	.	.
=33	=33	=33	=33	=33	=33	=33	=33	=33	=33	=33	=33
2.e	heart's	2.c 2.g	heart's	2.C	heart's	1CM	newline	.	.	61.516	C:maj
4e	on	4c 4g	on	4C	on	.	.	.	.	.	.
=34	=34	=34	=34	=34	=34	=34	=34	=34	=34	=34	=34
16e	fi	4B 4g	fi	4GG	fi	1GM	.	.	(A	63.406	G:maj
8.d	_	.	.	.	.	.	.	.	.	.	.
8d	re	8B 8g	re	8GG	re	.	.	.	a)	.	.
8r	.	8r	.	8r	.	.	.	.	.	.	.
8r	.	8r	.	8r	.	.	.	.	.	.	.
8c	for	8A 8f	for	8DD	for	.	.	.	.	.	.
8dq	_	.	.	.	.	.	.	.	.	.	.
12e	El	4B 4g	El	4GG	El	.	.	.	.	.	.
6d	_	.	.	.	.	.	.	.	.	.	.
=35	=35	=35	=35	=35	=35	=35	=35	=35	=35	=35	=35
4c	vi-	4G 4e	vi-	4CC	vi-	1CM	.	.	(A	65.296	C:maj
4e	-ra	4c 4g	-ra	4CC	-ra	.	.	.	a)	.	.
2r	.	2r	.	2r	.	.	.	.	.	.	.
=36	=36	=36	=36	=36	=36	=36	=36	=36	=36	=36	=36
1r	.	1r	.	1r	.	1CM	.	.	.	67.186	C:maj
=37	=37	=37	=37	=37	=37	=37	=37	=37	=37	=37	=37
*>Letter>D	*>Letter>D	*>Letter>D	*>Letter>D	*>Letter>D	*>Letter>D	*>Letter>D	*>Letter>D	*>Letter>D	*>Letter>D	*>Letter>D	*>Letter>D
*>Label>Bridge	*>Label>Bridge	*>Label>Bridge	*>Label>Bridge	*>Label>Bridge	*>Label>Bridge	*>Label>Bridge	*>Label>Bridge	*>Label>Bridge	*>Label>Bridge	*>Label>Bridge	*>Label>Bridge
8e	Gid-	8c 8g	Gid-	8C	Gid-	1CM	newline	.	.	69.076	C:maj
8e	-dy	8c 8g	-dy	8C	-dy	.	.	.	.	.	.
4e	up	4c 4g	up	8C	up,	.	.	.	.	.	.
.	.	.	.	8GG	pa-	.	.	.	.	.	.
2r	.	2r	.	4C	-oom,	.	.	.	.	.	.
.	.	.	.	8C	pa-	.	.	.	.	.	.
.	.	.	.	8~GG	-pa-	.	.	.	.	.	.
=38	=38	=38	=38	=38	=38	=38	=38	=38	=38	=38	=38
1r	.	1r	.	4C	-oom,	1CM	.	.	.	70.011	C:1
.	.	.	.	8C	pa-	.	.	.	.	.	.
.	.	.	.	8GG	-pa-	.	.	.	.	.	.
.	.	.	.	4BB-	-maow-	.	.	.	.	.	.
.	.	.	.	4~BB	-maow,	.	.	.	.	.	.
=39	=39	=39	=39	=39	=39	=39	=39	=39	=39	=39	=39
8e	Gid-	8c 8g	Gid-	8C	gid-	1CM	.	.	.	72.815	C:maj
8e	-dy	8c 8g	-dy	8C	-dy	.	.	.	.	.	.
4e	up	4c 4g	up	8C	up,	.	.	.	.	.	.
.	.	.	.	8~GG	pa-	.	.	.	.	.	.
2r	.	2r	.	4C	-oom,	.	.	.	.	.	.
.	.	.	.	8C	pa-	.	.	.	.	.	.
.	.	.	.	8~GG	-pa-	.	.	.	.	.	.
=40	=40	=40	=40	=40	=40	=40	=40	=40	=40	=40	=40
1r	.	1r	.	4C	-oom,	1CM	.	.	.	73.75	C:1
.	.	.	.	8C	pa-	.	.	.	.	.	.
.	.	.	.	8~GG	-pa-	.	.	.	.	.	.
.	.	.	.	4BB-	-maow	.	.	.	.	.	.
.	.	.	.	4~BB	maow	.	.	.	.	.	.
=41	=41	=41	=41	=41	=41	=41	=41	=41	=41	=41	=41
2.e	Hi-	2.c 2.g	Hi-	2.C	hi-	1CM	newline	.	.	76.554	C:maj
4e	-ho,	4c 4g	-ho,	4C	-ho,	.	.	.	.	.	.
=42	=42	=42	=42	=42	=42	=42	=42	=42	=42	=42	=42
16e	Sil	4B 4g	Sil	4GG	Sil-	1GM	.	.	.	78.454	G:maj
8.d	_	.	.	.	.	.	.	.	.	.	.
8e	ver	8B 8g	ver	8GG	-ver	.	.	.	.	.	.
8r	.	8r	.	8r	.	.	.	.	.	.	.
4r	.	4r	.	4r	.	.	.	.	.	.	.
4e	a-	4B 4g	a-	4GG	a-	.	.	.	.	.	.
=43	=43	=43	=43	=43	=43	=43	=43	=43	=43	=43	=43
8e	-way	8c 8g	-way	8CC	-way	1CM	.	.	C	80.353	C:maj
8d	_	8A 8f	_	8CC	_	.	.	.	.	.	.
4c	_	4G 4e	_	4CC	_	.	.	.	.	.	.
2r	.	2r	.	2r	.	.	.	.	.	.	.
=44	=44	=44	=44	=44	=44	=44	=44	=44	=44	=44	=44
2r	.	1r	.	1r	.	1CM	.	.	.	82.253	C:maj
4r	.	.	.	.	.	.	.	.	.	.	.
4c	To-	.	.	.	.	.	.	.	.	.	.
=45	=45	=45	=45	=45	=45	=45	=45	=45	=45	=45	=45
*>Letter>C	*>Letter>C	*>Letter>C	*>Letter>C	*>Letter>C	*>Letter>C	*>Letter>C	*>Letter>C	*>Letter>C	*>Letter>C	*>Letter>C	*>Letter>C
*>Label>Verse	*>Label>Verse	*>Label>Verse	*>Label>Verse	*>Label>Verse	*>Label>Verse	*>Label>Verse	*>Label>Verse	*>Label>Verse	*>Label>Verse	*>Label>Verse	*>Label>Verse
4c	-night,	1r	.	1r	.	1CMm	newline	.	.	84.152	C:7
8c	I'm	.	.	.	.	.	.	.	.	.	.
8B	_	.	.	.	.	.	.	.	.	.	.
8Bq	_	.	.	.	.	.	.	.	.	.	.
4c	gon-	.	.	.	.	.	.	.	.	.	.
8A	-na	.	.	.	.	.	.	.	.	.	.
[8c	meet	.	.	.	.	.	.	.	.	.	.
=46	=46	=46	=46	=46	=46	=46	=46	=46	=46	=46	=46
8c]	_	1r	.	1r	.	1CMm	.	.	.	86.05	C:7
8A	her	.	.	.	.	.	.	.	d	.	.
4r	.	.	.	.	.	.	.	.	.	.	.
8r	.	.	.	.	.	.	.	.	.	.	.
4c	at	.	.	.	.	.	.	.	.	.	.
8A	the	.	.	.	.	.	.	.	.	.	.
=47	=47	=47	=47	=47	=47	=47	=47	=47	=47	=47	=47
4c	Hun-	1r	.	1r	.	1CMm	.	.	.	87.947	C:7
8A	-gry	.	.	.	.	.	.	.	.	.	.
[8c	House	.	.	.	.	.	.	.	.	.	.
4c]	_	.	.	.	.	.	.	.	.	.	.
8c	Ca-	.	.	.	.	.	.	.	.	.	.
8d#q	_	.	.	.	.	.	.	.	.	.	.
8e	-fe	.	.	.	.	.	.	.	C	.	.
=48	=48	=48	=48	=48	=48	=48	=48	=48	=48	=48	=48
2r	.	1r	.	1r	.	1CMm	.	.	.	89.844	C:7
4r	.	.	.	.	.	.	.	.	.	.	.
8r	.	.	.	.	.	.	.	.	.	.	.
8~G	And	.	.	.	.	.	.	.	.	.	.
=49	=49	=49	=49	=49	=49	=49	=49	=49	=49	=49	=49
4e	I'm	1r	.	1r	.	1CMm	.	.	.	91.741	C:7
8e	gon-	.	.	.	.	.	.	.	.	.	.
8d#	-na	.	.	.	.	.	.	.	.	.	.
4e	give	.	.	.	.	.	.	.	.	.	.
4e	her	.	.	.	.	.	.	.	.	.	.
=50	=50	=50	=50	=50	=50	=50	=50	=50	=50	=50	=50
8d#q	_	.	.	.	.	.	.	.	.	.	.
4e	all	1r	.	1r	.	1CMm	.	.	.	93.639	C:7
8d#	the	.	.	.	.	.	.	.	.	.	.
[8e	love	.	.	.	.	.	.	.	.	.	.
8e]	_	.	.	.	.	.	.	.	.	.	.
4e	I	.	.	.	.	.	.	.	.	.	.
8f	can,	.	.	.	.	.	.	.	E	.	.
=51	=51	=51	=51	=51	=51	=51	=51	=51	=51	=51	=51
8e	_	1r	.	1r	.	1GMm	newline	.	.	95.536	G:7
4.d	_	.	.	.	.	.	.	.	.	.	.
8d	yes	.	.	.	.	.	.	.	.	.	.
8cq	_	.	.	.	.	.	.	.	.	.	.
4d	I	.	.	.	.	.	.	.	.	.	.
16B	am	.	.	.	.	.	.	.	E	.	.
16A	_	.	.	.	.	.	.	.	.	.	.
=52	=52	=52	=52	=52	=52	=52	=52	=52	=52	=52	=52
8G	_	1r	.	1r	.	1GMm	.	.	.	97.411	G:7
8r	.	.	.	.	.	.	.	.	.	.	.
4r	.	.	.	.	.	.	.	.	.	.	.
2r	.	.	.	.	.	.	.	.	.	.	.
=53	=53	=53	=53	=53	=53	=53	=53	=53	=53	=53	=53
8fq	_	.	.	.	.	.	.	.	.	.	.
4g	She's	1r	.	1r	.	1CMm	newline	.	.	99.285	C:7
8g	gon-	.	.	.	.	.	.	.	.	.	.
8g	-na	.	.	.	.	.	.	.	.	.	.
8a	jump	.	.	.	.	.	.	.	.	.	.
4g	and	.	.	.	.	.	.	.	.	.	.
8d#q	_	.	.	.	.	.	.	.	.	.	.
[8e	hol	.	.	.	.	.	.	.	(D	.	.
=54	=54	=54	=54	=54	=54	=54	=54	=54	=54	=54	=54
16e]	_	1r	.	1r	.	1CMm	.	.	.	101.188	C:7
8.c	ler	.	.	.	.	.	.	.	d)	.	.
4r	.	.	.	.	.	.	.	.	.	.	.
8r	.	.	.	.	.	.	.	.	.	.	.
8A	cuz	.	.	.	.	.	.	.	.	.	.
4c	I	.	.	.	.	.	.	.	.	.	.
=55	=55	=55	=55	=55	=55	=55	=55	=55	=55	=55	=55
8dq	_	.	.	.	.	.	.	.	.	.	.
4e-	saved	1r	.	1r	.	1FMm	newline	.	.	103.091	F:7
8c	up	.	.	.	.	.	.	.	.	.	.
8A	my	.	.	.	.	.	.	.	.	.	.
4c	last	.	.	.	.	.	.	.	.	.	.
8e-	two	.	.	.	.	.	.	.	.	.	.
8dq	_	.	.	.	.	.	.	.	.	.	.
[8e-	dol	.	.	.	.	.	.	.	(D	.	.
=56	=56	=56	=56	=56	=56	=56	=56	=56	=56	=56	=56
8e-]	_	1r	.	1r	.	1FMm	.	.	.	104.964	F:7
8cq	_	.	.	.	.	.	.	.	.	.	.
8c	lars	.	.	.	.	.	.	.	d)	.	.
4r	.	.	.	.	.	.	.	.	.	.	.
2r	.	.	.	.	.	.	.	.	.	.	.
=57	=57	=57	=57	=57	=57	=57	=57	=57	=57	=57	=57
4e	We	1r	.	1r	.	1CMm	newline	.	.	106.837	C:7
8e	gon-	.	.	.	.	.	.	.	.	.	.
8d	-na	.	.	.	.	.	.	.	.	.	.
8e	search	.	.	.	.	.	.	.	.	.	.
8d	_	.	.	.	.	.	.	.	.	.	.
4c	and	.	.	.	.	.	.	.	.	.	.
=58	=58	=58	=58	=58	=58	=58	=58	=58	=58	=58	=58
8cq	_	.	.	.	.	.	.	.	.	.	.
4d	find	1r	.	1r	.	1GMm	.	.	.	108.752	G:7
8dq	_	.	.	.	.	.	.	.	.	.	.
4e	that	.	.	.	.	.	.	.	.	.	.
8dq	_	.	.	.	.	.	.	.	.	.	.
4e	prea-	.	.	.	.	.	.	.	.	.	.
4d	-cher	.	.	.	.	.	.	.	.	.	.
=59	=59	=59	=59	=59	=59	=59	=59	=59	=59	=59	=59
8dq	_	.	.	.	.	.	.	.	.	.	.
8e	man	1r	.	1r	.	1CMm	newline	.	E	110.667	C:7
8d	_	.	.	.	.	.	.	.	.	.	.
4c	_	.	.	.	.	.	.	.	.	.	.
2r	.	.	.	.	.	.	.	.	.	.	.
=60	=60	=60	=60	=60	=60	=60	=60	=60	=60	=60	=60
8r	.	2r	.	2r	.	1CMm	.	.	.	112.532	C:7
8~F	And	.	.	.	.	.	.	.	.	.	.
8e	I'll	.	.	.	.	.	.	.	.	.	.
8d#	be	.	.	.	.	.	.	.	.	.	.
8e	sin-	4r	.	4r	.	.	.	.	.	.	.
8d#	-gin',	.	.	.	.	.	.	.	.	.	.
4e	El-	4c 4g	El-	4C	El-	.	.	.	.	.	.
=61	=61	=61	=61	=61	=61	=61	=61	=61	=61	=61	=61
*>Letter>B	*>Letter>B	*>Letter>B	*>Letter>B	*>Letter>B	*>Letter>B	*>Letter>B	*>Letter>B	*>Letter>B	*>Letter>B	*>Letter>B	*>Letter>B
*>Label>Chorus	*>Label>Chorus	*>Label>Chorus	*>Label>Chorus	*>Label>Chorus	*>Label>Chorus	*>Label>Chorus	*>Label>Chorus	*>Label>Chorus	*>Label>Chorus	*>Label>Chorus	*>Label>Chorus
4c	-vi-	4G 4e	-vi-	4C	-vi-	1CM	newline	.	(A	114.396	C:maj
4e	-ra	4c 4g	-ra	4C	-ra	.	.	.	a)	.	.
2r	.	2r	.	2r	.	.	.	.	.	.	.
=62	=62	=62	=62	=62	=62	=62	=62	=62	=62	=62	=62
2r	.	2r	.	2r	.	1CM	.	.	.	116.266	C:maj
4r	.	4r	.	4r	.	.	.	.	.	.	.
4e	El	4c 4g	El	4C	El	.	.	.	.	.	.
=63	=63	=63	=63	=63	=63	=63	=63	=63	=63	=63	=63
4c	vi-	4G 4e	vi-	4C	vi-	1CM	newline	.	(A	118.136	C:maj
4e	-ra	4c 4g	-ra	4C	-ra	.	.	.	a)	.	.
2r	.	2r	.	2r	.	.	.	.	.	.	.
=64	=64	=64	=64	=64	=64	=64	=64	=64	=64	=64	=64
2r	.	2r	.	2r	.	1CM	.	.	.	120.046	C:maj
4r	.	4r	.	4r	.	.	.	.	.	.	.
4c	My	4G 4e	My	4C	My	.	.	.	.	.	.
=65	=65	=65	=65	=65	=65	=65	=65	=65	=65	=65	=65
2.e	heart's	2.c 2.g	heart's	2.C	heart's	1CM	newline	.	.	121.956	C:maj
4e	on	4c 4g	on	4C	on	.	.	.	.	.	.
=66	=66	=66	=66	=66	=66	=66	=66	=66	=66	=66	=66
16e	fi	4B 4g	fi	4GG	fi	1GM	.	.	(A	123.843	G:maj
8.d	_	.	.	.	.	.	.	.	.	.	.
8d	re	8B 8g	re	8GG	re	.	.	.	a)	.	.
8r	.	8r	.	8r	.	.	.	.	.	.	.
8r	.	8r	.	8r	.	.	.	.	.	.	.
8c	for	8A 8f	for	8DD	for	.	.	.	.	.	.
8dq	_	.	.	.	.	.	.	.	.	.	.
12e	El	4B 4g	El	4GG	El	.	.	.	.	.	.
6d	_	.	.	.	.	.	.	.	.	.	.
=67	=67	=67	=67	=67	=67	=67	=67	=67	=67	=67	=67
4c	vi-	4G 4e	vi-	4CC	vi-	1CM	.	.	(A	125.73	C:maj
4e	-ra	4c 4g	-ra	4CC	-ra	.	.	.	a)	.	.
2r	.	2r	.	2r	.	.	.	.	.	.	.
=68	=68	=68	=68	=68	=68	=68	=68	=68	=68	=68	=68
1r	.	1r	.	1r	.	1CM	.	.	.	127.616	C:maj
=69	=69	=69	=69	=69	=69	=69	=69	=69	=69	=69	=69
*>Letter>D	*>Letter>D	*>Letter>D	*>Letter>D	*>Letter>D	*>Letter>D	*>Letter>D	*>Letter>D	*>Letter>D	*>Letter>D	*>Letter>D	*>Letter>D
*>Label>Bridge	*>Label>Bridge	*>Label>Bridge	*>Label>Bridge	*>Label>Bridge	*>Label>Bridge	*>Label>Bridge	*>Label>Bridge	*>Label>Bridge	*>Label>Bridge	*>Label>Bridge	*>Label>Bridge
8e	Gid-	8c 8g	Gid-	8C	Gid-	1CM	newline	.	.	129.503	C:maj
8e	-dy	8c 8g	-dy	8C	-dy	.	.	.	.	.	.
4e	up	4c 4g	up	8C	up,	.	.	.	.	.	.
.	.	.	.	8~GG	pa-	.	.	.	.	.	.
2r	.	2r	.	4C	-oom,	.	.	.	.	.	.
.	.	.	.	8C	pa-	.	.	.	.	.	.
.	.	.	.	8~GG	-pa-	.	.	.	.	.	.
=70	=70	=70	=70	=70	=70	=70	=70	=70	=70	=70	=70
1r	.	1r	.	4C	-oom,	1CM	.	.	.	130.431	C:1
.	.	.	.	8BBq	_	.	.	.	.	.	.
.	.	.	.	8C	pa-	.	.	.	.	.	.
.	.	.	.	8~GG	-pa-	.	.	.	.	.	.
.	.	.	.	4BB-	-maow-	.	.	.	.	.	.
.	.	.	.	4~BB	-maow,	.	.	.	.	.	.
=71	=71	=71	=71	=71	=71	=71	=71	=71	=71	=71	=71
8e	Gid-	8c 8g	Gid-	8C	gid-	1CM	.	.	.	133.214	C:maj
8e	-dy	8c 8g	-dy	8C	-dy	.	.	.	.	.	.
4e	up	4c 4g	up	8C	up,	.	.	.	.	.	.
.	.	.	.	8r	.	.	.	.	.	.	.
2r	.	2r	.	4C	oom,	.	.	.	.	.	.
.	.	.	.	8C	pa-	.	.	.	.	.	.
.	.	.	.	8~GG	-pa-	.	.	.	.	.	.
=72	=72	=72	=72	=72	=72	=72	=72	=72	=72	=72	=72
1r	.	1r	.	4C	-oom,	1CM	.	.	.	134.142	C:1
.	.	.	.	8C	pa-	.	.	.	.	.	.
.	.	.	.	8C	-pa-	.	.	.	.	.	.
.	.	.	.	4CC	-maow	.	.	.	.	.	.
.	.	.	.	4CC	maow	.	.	.	.	.	.
=73	=73	=73	=73	=73	=73	=73	=73	=73	=73	=73	=73
2.e	Hi-	2.c 2.g	Hi-	2.CC	hi-	1CM	newline	.	.	136.926	C:maj
4e	-ho,	4c 4g	-ho,	4EE	-ho,	.	.	.	.	.	.
=74	=74	=74	=74	=74	=74	=74	=74	=74	=74	=74	=74
16e	Sil	4B 4g	Sil	4GG	Sil-	1GM	.	.	.	138.801	G:maj
8.d	_	.	.	.	.	.	.	.	.	.	.
8e	ver	8B 8g	ver	8GG	-ver	.	.	.	.	.	.
8r	.	8r	.	8r	.	.	.	.	.	.	.
4r	.	4r	.	4r	.	.	.	.	.	.	.
4e	a-	4B 4g	a-	4GG	a-	.	.	.	.	.	.
=75	=75	=75	=75	=75	=75	=75	=75	=75	=75	=75	=75
8e	-way	8c 8g	-way	8CC	-way	1CM	.	.	C	140.677	C:maj
8d	_	8A 8f	_	8CC	_	.	.	.	.	.	.
4c	_	4G 4e	_	4CC	_	.	.	.	.	.	.
2r	.	2r	.	2r	.	.	.	.	.	.	.
=76	=76	=76	=76	=76	=76	=76	=76	=76	=76	=76	=76
*D-:	*	*D-:	*	*D-:	*	*D-:	*D-:	*D-:	*	*D-:	*D-:
2r	.	2r	.	2r	.	1A-M	.	.	.	142.553	A-:maj
4r	.	4r	.	4r	.	.	.	.	.	.	.
8e-q	_	.	.	.	.	.	.	.	.	.	.
4f	El-	4d- 4a-	El-	4D-	El-	.	.	.	.	.	.
=77	=77	=77	=77	=77	=77	=77	=77	=77	=77	=77	=77
*>Letter>B2	*>Letter>B2	*>Letter>B2	*>Letter>B2	*>Letter>B2	*>Letter>B2	*>Letter>B2	*>Letter>B2	*>Letter>B2	*>Letter>B2	*>Letter>B2	*>Letter>B2
*>Label>Chorus	*>Label>Chorus	*>Label>Chorus	*>Label>Chorus	*>Label>Chorus	*>Label>Chorus	*>Label>Chorus	*>Label>Chorus	*>Label>Chorus	*>Label>Chorus	*>Label>Chorus	*>Label>Chorus
4d-	-vi-	4A- 4f	-vi-	4D-	-vi-	1D-M	newline	.	(A	144.428	D-:maj
4f	-ra	4d- 4a-	-ra	4D-	-ra	.	.	.	a)	.	.
2r	.	2r	.	2r	.	.	.	.	.	.	.
=78	=78	=78	=78	=78	=78	=78	=78	=78	=78	=78	=78
2r	.	2r	.	2r	.	1D-M	.	.	.	146.335	D-:maj
4r	.	4r	.	4r	.	.	.	.	.	.	.
12f	El	4d- 4a-	El	4D-	El	.	.	.	.	.	.
6e-	_	.	.	.	.	.	.	.	.	.	.
=79	=79	=79	=79	=79	=79	=79	=79	=79	=79	=79	=79
*>Label>>Fadeout	*>Label>>Fadeout	*>Label>>Fadeout	*>Label>>Fadeout	*>Label>>Fadeout	*>Label>>Fadeout	*>Label>>Fadeout	*>Label>>Fadeout	*>Label>>Fadeout	*>Label>>Fadeout	*>Label>>Fadeout	*>Label>>Fadeout
4d-	vi-	4A- 4f	vi-	4D-	vi-	1D-M	newline	.	(A	148.242	D-:maj
4f	-ra	4d- 4a-	-ra	4D-	-ra	.	.	.	a)	.	.
2r	.	2r	.	2r	.	.	.	.	.	.	.
=80	=80	=80	=80	=80	=80	=80	=80	=80	=80	=80	=80
2r	.	2r	.	2r	.	1D-M	.	.	.	150.139	D-:maj
4r	.	4r	.	4r	.	.	.	.	.	.	.
4d-	My	4A- 4f	My	4D-	My	.	.	.	.	.	.
=81	=81	=81	=81	=81	=81	=81	=81	=81	=81	=81	=81
2.f	heart's	2.d- 2.a-	heart's	2.D-	heart's	1D-M	newline	voice	.	152.035	D-:maj
4f	on	4d- 4a-	on	4D-	on	.	.	.	.	.	.
=82	=82	=82	=82	=82	=82	=82	=82	=82	=82	=82	=82
16f	fi	4c 4a-	fi	4AA-	fi	1A-M	.	voice	(A	153.318	A-:maj
8.e-	_	.	.	.	.	.	.	.	.	.	.
8e-	re	8c 8a-	re	8AA-	re	.	.	.	a)	.	.
8r	.	8r	.	8r	.	.	.	.	.	.	.
8r	.	8r	.	8r	.	.	.	.	.	.	.
8d-	for	8B- 8g-	for	8EE-	for	.	.	.	.	.	.
8e-q	_	.	.	.	.	.	.	.	.	.	.
12f	El	4c 4a-	El	4AA-	El	.	.	.	.	.	.
6e-	_	.	.	.	.	.	.	.	.	.	.
=83	=83	=83	=83	=83	=83	=83	=83	=83	=83	=83	=83
4d-	vi-	4A- 4f	vi-	4DD-	vi-	1D-M	.	voice	(A	154.6	D-:maj
4f	-ra	4d- 4a-	-ra	4DD-	-ra	.	.	.	a)	.	.
2r	.	2r	.	2r	.	.	.	.	.	.	.
=84	=84	=84	=84	=84	=84	=84	=84	=84	=84	=84	=84
1r	.	1r	.	1r	.	1D-M	.	voice	.	155.883	D-:maj
r;	.	r;	.	r;	.	1r;	.	r	.	157.165	N.C.
r;	.	r;	.	r;	.	1r;	.	r	.	161.155	N.C.
*-	*-	*-	*-	*-	*-	*-	*-	*-	*-	*-	*-
!!!BillboardChartDate: 1981/05/30
!!!BillboardPeak: 5
!!!BillboardWeeksOnChart: 22
!!!COC: Oak Ridge Boys
!!!ENC: Nathaniel Condit-Schultz
!!!EST: Awating manual error checking and editing.
!!!OTL: Elvira
!!!RDF**chordsym: original McGill chord annotation + (implied pitch class set, with bass pitch in first position)
!!!RDF**harmony: **recip + pitch class of root + harmonic quality
!!!RDF**leadinstrument: original McGill primary instrumentation annotation
!!!RDF**phrase: newline = linebreak in original McGill transcription
!!!RDF**timestamp: McGill audio timestamp in seconds
!!!RDT: 2017/01/12/
!!!SampleActualRank: 48
!!!SampleID#: 0864
!!!SampleTargetRank: 48
